X:1
T:Title
%%score { ( 1 3 ) | ( 2 4 ) }
L:1/8
Q:1/4=100
M:4/4
K:Ab
V:1 treble nm="Grand Piano"
V:3 treble 
V:2 bass 
V:4 bass 
V:1
 [CE]2 [CA]2 [CA]2 [Ec]2 | c2 B2 G2 E2 | [CE]2 [CA]2 [Ec]2 [CA]2 |[M:5/4] G2 A2 B6 | %4
w: Wm.~J.~Kirkpatrick * * *||||
[M:4/4] E2 [CA]2 [CA]2 [Ec]2 | c2 B2 G2 E2 | [CE]2 [EA]2 [DF]2 [Fd]2 | [Ec]2 [DB]2 [CA]4 | %8
w: ||||
 [DB]2 [DE]2 B2 [DE]2 | z2 [CA]2[K:bass][K:treble] z2 [CA]2 | [DF]2 [FA]2 E2 [EA]2 | %11
w: |||
 [EB]2[K:bass][K:treble] [=Dc]2 B4[K:bass] | z2 [CA]2[K:bass][K:treble] z2 [CA]2 | %13
w: ||
 [DF]2 [FA]2 [Fd]2 [DF]2 | [CE]2 [CA]2[K:bass][K:treble] z2 [CA]2 | c2 B2 [CA]4 |] %16
w: |||
V:2
 [A,,A,]2 [A,,E,]2 [A,,E,]2 [A,,A,]2 | [E,G,D]2 [E,G,D]2 [E,B,D]2 [E,B,D]2 | %2
 [A,,A,]2 [A,,E,]2 [A,,A,]2 [A,,A,]2 |[M:5/4] [E,B,E]2 [F,A,=D]2 [E,G,_D]6 | %4
[M:4/4] [A,C]2 [A,,A,]2 [A,,A,]2 [A,,A,]2 | [E,G,D]2 [E,G,D]2 [E,B,D]2 [E,B,D]2 | %6
 [A,,A,]2 [C,A,]2 [D,A,]2 [D,A,]2 | [E,A,]2 [E,G,]2 [A,,A,]4 | z4 D2 z2 | %9
 [A,,A,][A,,A,] .[A,,E,]2 [A,,A,][A,,A,][A,,A,]A,, | D,D,D,D, [C,A,]C,C,C, | z4 [G,E]4 | %12
 [A,,A,][A,,A,] .[A,,E,]2 [A,,A,][A,,A,][A,,A,]A,, | D,D,D,D, [D,A,]D,D,D, | %14
 A,,A,, .[A,,E,]2 [A,,A,][A,,A,][A,,A,]A,, | [E,A,E]2 [E,G,D]2 [A,,A,]4 |] %16
V:3
 x8 | x8 | x8 |[M:5/4] x10 |[M:4/4] x8 | x8 | x8 | x8 | z G,G,G, z G,G,G, | %9
 [Ec]2 z[K:bass] [A,,E,][K:treble] [Ec]2 z A, | A,A,A,A, z A,A,A, | %11
 z[K:bass] [B,,G,][K:treble] z A, z[K:bass] D,C,B,, | %12
 [CE]2 z[K:bass] [A,,E,][K:treble] [Ec]2 z A, | A,A,DD z A,A,A, | %14
 A,A, z[K:bass] [A,,E,][K:treble] [Ec]2 z A, | x8 |] %16
V:4
 x8 | x8 | x8 |[M:5/4] x10 |[M:4/4] x8 | x8 | x8 | x8 | [E,G,]E,E,E, [E,G,]E,E,E, | x8 | x8 | %11
 .[B,,G,]2 [B,,A,]B,, .E,2 z2 | x8 | x8 | x8 | x8 |] %16

